X:1
T:Chi nudrisse
T:Chi nudrisse
T:Piero Benedetti
T:Source : Musische di Piero Benedetti---Fiorenza---Heredes di C.Marescotti---1611. Editor : André Vierendeels (21/05/15).
C:Piero Benedetti
%%score [ 1 2 ] 3
L:1/8
Q:1/4=76
M:4/4
K:C
V:1 treble nm="Soprano" snm="S"
V:2 treble-8 nm="Tenor" snm="T"
V:3 bass nm="BC" snm="BC"
V:1
 z8 | z8 | z8 | z8 | z8 | z8 | z2 eB c2 de | B4 A4 | z8 | z8 | z8 | z Acd e4- | e2 d/c/B/A/ B4 | %13
w: ||||||Duo be- gl'oc- chi lu-|cen- ti,||||Pur duo be- gl'oc-|* chi'ar- * * * den-|
 A8 | z8 | z8 | z8 | z dAB c4- | c2 A2 F>G A>B | c>d e>f g>e f/e/d/c/ | B2 c4 c>B- | c8 | z8 | z8 | %24
w: ti.||||di duo be- gl'oc-|* ch'i- ra- * * *|||i.|||
 z8 | z8 | z eBc d4- | d2 c2 B4 | A8 | z8 | z8 | z8 | z8 | z AEF G4- | G2 F2 E4 | D8 | z dAB c4- | %37
w: ||Di tuoi be- gl'oc-|* chi'al ri-|so,|||||Di tuoi be- gl'oc-|* ch'il ri-|so,|di tuoi be- gl'oc-|
 c2 _B2 A4 | G8 |] %39
w: * ch'il ri-|so.|
V:2
 G3 G G4- | G2 GA B4 | B2 z d ^G2 G2 | z ecB c4 | c2 z B d3 c | A4 B4 | z8 | z8 | A2 EE F3 G | %9
w: Chi nu- dris-|* se tua spe-|me, cor mi- o,|chi fiam- ma cre-|sce a tuoi de-|si- ri?|||chi rad- dol- ci- sce'il|
 E2 z E A3 _B | _B4 A4 | z8 | z8 | z8 | z GBc d2 d2 | z Bcd e3 A | A4 B4 | z8 | z8 | z8 | z8 | z8 | %22
w: fiel de tuoi mar-|ti- ri?||||E chi ti dop- pia,|è chi t'in- as- pra'i|gua- i,||||||
 z2 e4 ^GG | ^G4 G4 | z BBB c3 e | B4 B4 | z8 | z8 | z8 | z2 A4 ^CC | ^C4 C4 | z EEE F3 A | E4 E4 | %33
w: Ma chi t'an-|ci- de,|e chi t'a- vi- v'an-|ci- so?||||Ma chi t'an-|ci- de,|e chi t'a- vi- v'an-|ci- so?|
 z8 | z8 | z8 | z8 | z8 | z8 |] %39
w: ||||||
V:3
 G,,4 B,,4 | C,4 G,,4 |"^#" G,2 F,2 E,4 | A,,4 A,,4 | A,4 F,4 |"^6""^#" F,4 E,4 |"^#" E,4 A,,4 | %7
"^4""^#""^#" E,2 E,2 A,,4 |"^#""^4" A,,4 A,,4 |"^#" A,,4 ^F,4 |"^#" G,4 D,4 | A,,4 A,,4 | %12
"^#""^4""^#" E,2 E,4 E,2 |"^#" A,,8 | G,,8 | G,,4 ^C,4 |"^#""^6" F,2 F,2 E,4 | D,4 E,2 F,2 | %18
 F,4 F,4 | E,8 | G,8 | C,8 |"^#" C,3 D, E,4 |"^#" E,8 |"^#" E,8 |"^#" E,8 |"^#" E,4 D,4 | %27
"^#""^4""^#" E,2 E,4 E,2 |"^#" A,,8 |"^#" A,,8 |"^#" A,,8 |"^#" A,,8 |"^#" A,,8 | %33
"^#""^b" A,,4 G,,4 |"^#""^4""^#" A,,2 A,,4 A,,2 |"^#" D,8 |"^#" D,4 C,4 |"^#""^4""^#" D,2 D,4 D,2 | %38
 G,,8 |] %39

